src/assets/filled/ProgrammingArrow.svg

<svg width="24" height="24" viewBox="0 0 24 24"  xmlns="http://www.w3.org/2000/svg">
<path d="M5.75 16.11V7.89C7.04 7.56 8 6.4 8 5C8 3.34 6.66 2 5 2C3.34 2 2 3.34 2 5C2 6.4 2.96 7.56 4.25 7.89V16.1C2.96 16.44 2 17.6 2 19C2 20.66 3.34 22 5 22C6.66 22 8 20.66 8 19C8 17.6 7.04 16.44 5.75 16.11Z" />
<path d="M19.75 16.1097V6.49969C19.75 4.97969 18.52 3.74969 17 3.74969H14.07L15.48 2.57969C15.8 2.30969 15.84 1.83969 15.58 1.51969C15.31 1.19969 14.84 1.15969 14.52 1.41969L11.52 3.91969C11.35 4.05969 11.25 4.26969 11.25 4.49969C11.25 4.72969 11.35 4.92969 11.52 5.07969L14.52 7.57969C14.66 7.69969 14.83 7.74969 15 7.74969C15.21 7.74969 15.43 7.65969 15.58 7.47969C15.85 7.15969 15.8 6.68969 15.48 6.41969L14.07 5.24969H17C17.69 5.24969 18.25 5.80969 18.25 6.49969V16.1097C16.96 16.4397 16 17.5997 16 18.9997C16 20.6597 17.34 21.9997 19 21.9997C20.66 21.9997 22 20.6597 22 18.9997C22 17.5997 21.04 16.4397 19.75 16.1097Z" />
</svg>

<?xml version="1.0" encoding="UTF-8"?>
<svg width="24" height="24" viewBox="0 0 24 24" xmlns="http://www.w3.org/2000/svg">
 <path d="m5.75 16.11v-8.22c1.29-0.33 2.25-1.49 2.25-2.89 0-1.66-1.34-3-3-3s-3 1.34-3 3c0 1.4 0.96 2.56 2.25 2.89v8.21c-1.29 0.34-2.25 1.5-2.25 2.9 0 1.66 1.34 3 3 3s3-1.34 3-3c0-1.4-0.96-2.56-2.25-2.89z"/>
 <path d="m19.75 16.11v-9.61c0-1.52-1.23-2.75-2.75-2.75h-2.93l1.41-1.17c0.32-0.27 0.36-0.74 0.1-1.06-0.27-0.32-0.74-0.36-1.06-0.1l-3 2.5c-0.17 0.14-0.27 0.35-0.27 0.58s0.1 0.43 0.27 0.58l3 2.5c0.14 0.12 0.31 0.17 0.48 0.17 0.21 0 0.43-0.09 0.58-0.27 0.27-0.32 0.22-0.79-0.1-1.06l-1.41-1.17h2.93c0.69 0 1.25 0.56 1.25 1.25v9.61c-1.29 0.33-2.25 1.49-2.25 2.89 0 1.66 1.34 3 3 3s3-1.34 3-3c0-1.4-0.96-2.56-2.25-2.89z"/>
</svg>
